icons/svg/money/payment_centre.svg

<?xml version="1.0" encoding="UTF-8" standalone="no"?>
<!-- Created with Inkscape (http://www.inkscape.org/) -->

<svg
   xmlns:dc="http://purl.org/dc/elements/1.1/"
   xmlns:cc="http://creativecommons.org/ns#"
   xmlns:rdf="http://www.w3.org/1999/02/22-rdf-syntax-ns#"
   xmlns:svg="http://www.w3.org/2000/svg"
   xmlns="http://www.w3.org/2000/svg"
   xmlns:sodipodi="http://sodipodi.sourceforge.net/DTD/sodipodi-0.dtd"
   xmlns:inkscape="http://www.inkscape.org/namespaces/inkscape"
   version="1.0"
   width="580"
   height="580"
   id="svg2"
   sodipodi:version="0.32"
   inkscape:version="0.91 r13725"
   sodipodi:docname="payment_centre.svg"
   inkscape:output_extension="org.inkscape.output.svg.inkscape">
  <metadata
     id="metadata2975">
    <rdf:RDF>
      <cc:Work
         rdf:about="">
        <dc:format>image/svg+xml</dc:format>
        <dc:type
           rdf:resource="http://purl.org/dc/dcmitype/StillImage" />
        <cc:license
           rdf:resource="http://web.resource.org/cc/PublicDomain" />
        <dc:language>en</dc:language>
        <dc:title />
      </cc:Work>
    </rdf:RDF>
  </metadata>
  <sodipodi:namedview
     inkscape:window-height="1006"
     inkscape:window-width="1920"
     inkscape:pageshadow="2"
     inkscape:pageopacity="0.0"
     guidetolerance="10.0"
     gridtolerance="10.0"
     objecttolerance="10.0"
     borderopacity="1.0"
     bordercolor="#666666"
     pagecolor="#ffffff"
     id="base"
     inkscape:zoom="0.65172416"
     inkscape:cx="-4.9073138"
     inkscape:cy="259.04108"
     inkscape:window-x="1920"
     inkscape:window-y="0"
     inkscape:current-layer="svg2"
     showgrid="false"
     inkscape:window-maximized="1" />
  <defs
     id="defs4">
    <inkscape:perspective
       sodipodi:type="inkscape:persp3d"
       inkscape:vp_x="0 : 290 : 1"
       inkscape:vp_y="0 : 1000 : 0"
       inkscape:vp_z="580 : 290 : 1"
       inkscape:persp3d-origin="290 : 193.33333 : 1"
       id="perspective2441" />
  </defs>
  <g
     id="g1327">
    <path
       d="M 66.275,1.768 C 24.94,1.768 1.704,23.139 1.704,66.804 L 1.704,516.927 C 1.704,557.771 22.599,579.156 63.896,579.156 L 515.92,579.156 C 557.227,579.156 578.149,558.841 578.149,516.927 L 578.149,66.804 C 578.149,24.203 557.227,1.768 514.628,1.768 C 514.624,1.768 66.133,1.625 66.275,1.768 z "
       style="fill:#111;stroke:#eee;stroke-width:3.40799999"
       id="path1329" />
  </g>
  <g
     id="g4372"
     transform="translate(-130.0802,122.26983)" />
  <g
     id="g5004"
     transform="matrix(0.88441573,0,0,0.66515747,-112.73743,175.29463)" />
  <path
     style="fill:#ffffff;fill-opacity:1;stroke:#ffffff;stroke-width:10.03930569;stroke-linecap:round;stroke-linejoin:round;stroke-miterlimit:4;stroke-dasharray:none;stroke-opacity:1"
     d="m 28.798522,161.15244 c 19.762638,23.0098 39.508891,46.02221 59.266391,69.03283 30.423237,-10.63204 60.862537,-21.25111 91.268127,-31.89749 L 136.18236,186.75747 C 147.24306,143.02561 177.19613,95.62408 227.90941,72.19705 124.67515,68.860293 79.885994,126.58518 67.534686,169.53223 L 26.597697,158.59344 Z"
     id="path8535"
     inkscape:connector-curvature="0"
     sodipodi:nodetypes="cccccccc" />
  <path
     inkscape:connector-curvature="0"
     id="path4152"
     style="font-style:normal;font-variant:normal;font-weight:bold;font-stretch:normal;font-size:medium;line-height:125%;font-family:Roboto;-inkscape-font-specification:'Roboto Bold';letter-spacing:0px;word-spacing:0px;fill:#ffffff;fill-opacity:1;stroke:none;stroke-width:1px;stroke-linecap:butt;stroke-linejoin:miter;stroke-opacity:1"
     d="m 326.99616,338.807 q 0,-11.3376 -8.32189,-17.97425 -8.14096,-6.77491 -27.86017,-12.44372 -19.71923,-5.66878 -34.01114,-11.19933 -14.29191,-5.66881 -24.60381,-12.85851 -10.13096,-7.32795 -15.92009,-17.14465 -5.60823,-9.8167 -5.60823,-23.36654 0,-23.36653 19.53832,-38.29897 19.5383,-14.93246 51.92126,-17.4212 l 0,-29.58839 28.94565,0 0,30.00319 q 32.02112,3.45658 50.11215,20.46298 18.09103,16.86815 18.09103,43.82952 l -52.28308,0 q 0,-16.59162 -9.04552,-24.74916 -8.8646,-8.29581 -23.88016,-8.29581 -14.83463,0 -22.97561,6.49838 -8.14096,6.36013 -8.14096,17.69773 0,10.50802 7.96006,16.86815 7.96003,6.36011 29.48837,12.99675 21.70923,6.63665 35.63934,12.58198 13.9301,5.80707 23.51834,13.27329 9.58826,7.32796 14.65373,16.86814 5.06549,9.40192 5.06549,21.9839 0,23.50478 -19.17649,38.16071 -19.17649,14.65594 -52.82581,17.28294 l 0,27.51442 -28.76475,0 0,-27.37616 q -37.08662,-3.04181 -57.52948,-20.0482 -20.26196,-17.14468 -20.26196,-45.48867 l 52.28308,0 q 0,16.45335 10.13098,25.3022 10.3119,8.7106 29.48839,8.7106 15.92011,0 25.14653,-6.36012 9.22643,-6.49839 9.22643,-17.4212 z" />
  <path
     style="fill:#ffffff;fill-opacity:1;stroke:#ffffff;stroke-width:10.03930569;stroke-linecap:round;stroke-linejoin:round;stroke-miterlimit:4;stroke-dasharray:none;stroke-opacity:1"
     d="m 551.20148,418.84756 c -19.76264,-23.0098 -39.50889,-46.02221 -59.26639,-69.03283 -30.42324,10.63204 -60.86254,21.25111 -91.26813,31.89749 l 43.15068,11.53031 c -11.0607,43.73186 -41.01377,91.13339 -91.72705,114.56042 103.23426,3.33676 148.02342,-54.38813 160.37472,-97.33518 l 40.93699,10.93879 z"
     id="path8535-5"
     inkscape:connector-curvature="0"
     sodipodi:nodetypes="cccccccc" />
</svg>

<svg width="580" height="580" viewBox="0 0 580 580" fill="none" xmlns="http://www.w3.org/2000/svg">
<g clip-path="url(#clip0)">
<path d="M66.2751 1.76799C24.9401 1.76799 1.7041 23.139 1.7041 66.804V516.927C1.7041 557.771 22.5991 579.156 63.8961 579.156H515.92C557.227 579.156 578.149 558.841 578.149 516.927V66.804C578.149 24.203 557.227 1.76799 514.628 1.76799C514.624 1.76799 66.1331 1.62499 66.2751 1.76799Z" fill="#111111" stroke="#EEEEEE" stroke-width="3.408"/>
<path d="M28.7985 161.152C48.5611 184.162 68.3074 207.175 88.0649 230.185C118.488 219.553 148.927 208.934 179.333 198.288L136.182 186.757C147.243 143.026 177.196 95.6241 227.909 72.1971C124.675 68.8603 79.886 126.585 67.5346 169.532L26.5977 158.593L28.7985 161.152Z" fill="white" stroke="white" stroke-width="10.0393" stroke-linecap="round" stroke-linejoin="round"/>
<path d="M326.996 338.807C326.996 331.249 324.222 325.257 318.674 320.833C313.247 316.316 303.96 312.168 290.814 308.389C277.668 304.61 266.331 300.877 256.803 297.19C247.275 293.41 239.074 289.124 232.199 284.331C225.445 279.446 220.138 273.731 216.279 267.187C212.54 260.642 210.671 252.853 210.671 243.82C210.671 228.242 217.184 215.476 230.209 205.521C243.235 195.566 260.542 189.759 282.13 188.1V158.511H311.076V188.515C332.423 190.819 349.127 197.64 361.188 208.978C373.249 220.223 379.279 234.833 379.279 252.807H326.996C326.996 241.746 323.981 233.496 317.951 228.058C312.041 222.527 304.081 219.762 294.07 219.762C284.181 219.762 276.522 221.928 271.095 226.261C265.668 230.501 262.954 236.4 262.954 243.958C262.954 250.964 265.607 256.586 270.914 260.826C276.221 265.066 286.05 269.399 300.402 273.823C314.875 278.248 326.755 282.442 336.042 286.405C345.328 290.277 353.168 294.701 359.56 299.678C365.952 304.564 370.837 310.186 374.214 316.547C377.591 322.815 379.279 330.142 379.279 338.53C379.279 354.2 372.887 366.921 360.103 376.691C347.318 386.462 329.71 392.223 307.277 393.974V421.489H278.512V394.112C253.788 392.085 234.611 385.402 220.983 374.064C207.475 362.634 200.721 347.472 200.721 328.576H253.004C253.004 339.544 256.381 347.978 263.135 353.878C270.009 359.685 279.839 362.588 292.623 362.588C303.237 362.588 311.619 360.468 317.77 356.228C323.921 351.896 326.996 346.089 326.996 338.807V338.807Z" fill="white"/>
<path d="M551.202 418.848C531.439 395.838 511.693 372.825 491.935 349.815C461.512 360.447 431.073 371.066 400.667 381.712L443.818 393.243C432.757 436.974 402.804 484.376 352.091 507.803C455.325 511.14 500.114 453.415 512.466 410.468L553.403 421.407L551.202 418.848Z" fill="white" stroke="white" stroke-width="10.0393" stroke-linecap="round" stroke-linejoin="round"/>
</g>
<defs>
<clipPath id="clip0">
<path d="M0 0H580V580H0V0Z" fill="white"/>
</clipPath>
</defs>
</svg>
